1.Normal/chrome/Icons/paste.svg

<svg xmlns="http://www.w3.org/2000/svg" width="16" height="16" viewBox="0 0 16 16">
   <path
   style="fill:context-fill;fill-opacity:context-fill-opacity"
   d="M 5.5 0 C 4.84689 0 4.2918575 0.4174 4.0859375 1 L 2.5 1 C 1.67157 1 1 1.67157 1 2.5 L 1 14.5 C 1 15.3284 1.67157 16 2.5 16 L 5.5 16 C 5.77614 16 6 15.7761 6 15.5 C 6 15.2239 5.77614 15 5.5 15 L 2.5 15 C 2.22386 15 2 14.7761 2 14.5 L 2 2.5 C 2 2.22386 2.22386 2 2.5 2 L 4.0859375 2 C 4.2918575 2.5826 4.84689 3 5.5 3 L 8.5 3 C 9.1531 3 9.7081625 2.5826 9.9140625 2 L 11.5 2 C 11.7761 2 12 2.22386 12 2.5 L 12 3.5 C 12 3.77614 12.2239 4 12.5 4 C 12.7761 4 13 3.77614 13 3.5 L 13 2.5 C 13 1.67157 12.3284 1 11.5 1 L 9.9140625 1 C 9.7081625 0.4174 9.1531 0 8.5 0 L 5.5 0 z M 5.5 1 L 8.5 1 C 8.7761 1 9 1.22386 9 1.5 C 9 1.77614 8.7761 2 8.5 2 L 5.5 2 C 5.22386 2 5 1.77614 5 1.5 C 5 1.22386 5.22386 1 5.5 1 z M 8.5 5 C 7.67157 5 7 5.67157 7 6.5 L 7 14.5 C 7 15.3284 7.67157 16 8.5 16 L 13.5 16 C 14.3284 16 15 15.3284 15 14.5 L 15 6.5 C 15 5.67157 14.3284 5 13.5 5 L 8.5 5 z M 8.5 6 L 13.5 6 C 13.7761 6 14 6.22386 14 6.5 L 14 14.5 C 14 14.7761 13.7761 15 13.5 15 L 8.5 15 C 8.2239 15 8 14.7761 8 14.5 L 8 6.5 C 8 6.22386 8.2239 6 8.5 6 z " />
</svg>

<svg xmlns="http://www.w3.org/2000/svg" width="16" height="16">
  <style>
    #url:not(:target),#url:target+#text{display:none}
  </style>
  <g style="fill:context-fill;fill-opacity:context-fill-opacity">
    <path id="url" d="M5.5 0a1.5 1.5 0 0 0-1.414 1H2.5A1.5 1.5 0 0 0 1 2.5v12A1.5 1.5 0 0 0 2.5 16h5.844a5.536 5.536 0 0 1-1.086-1H2.5a.5.5 0 0 1-.5-.5v-12a.5.5 0 0 1 .5-.5h1.586A1.5 1.5 0 0 0 5.5 3h3a1.5 1.5 0 0 0 1.414-1H11.5a.5.5 0 0 1 .5.5v3.525c.344.031.677.096 1 .188V2.5A1.5 1.5 0 0 0 11.5 1H9.914A1.5 1.5 0 0 0 8.5 0h-3zm0 1h3a.5.5 0 0 1 0 1h-3a.5.5 0 0 1 0-1zm6 6a4.5 4.5 0 1 0 0 9 4.5 4.5 0 0 0 0-9zm0 2c.128 0 .256.049.354.146l2 2a.502.502 0 0 1 .146.35v.008a.495.495 0 0 1-.145.348l-.001.002-2 2a.5.5 0 0 1-.708-.708L12.293 12H9.5a.5.5 0 0 1 0-1h2.793l-1.147-1.146A.5.5 0 0 1 11.5 9z"/>
    <path id="text" d="M5.5 0a1.5 1.5 0 0 0-1.414 1H2.5A1.5 1.5 0 0 0 1 2.5v12A1.5 1.5 0 0 0 2.5 16h3a.5.5 0 0 0 0-1h-3a.5.5 0 0 1-.5-.5v-12a.5.5 0 0 1 .5-.5h1.586A1.5 1.5 0 0 0 5.5 3h3a1.5 1.5 0 0 0 1.414-1H11.5a.5.5 0 0 1 .5.5v1a.5.5 0 0 0 1 0v-1A1.5 1.5 0 0 0 11.5 1H9.914A1.5 1.5 0 0 0 8.5 0h-3zm0 1h3a.5.5 0 0 1 0 1h-3a.5.5 0 0 1 0-1zm3 4A1.5 1.5 0 0 0 7 6.5v8A1.5 1.5 0 0 0 8.5 16h5a1.5 1.5 0 0 0 1.5-1.5v-8A1.5 1.5 0 0 0 13.5 5h-5zm0 1h5a.5.5 0 0 1 .5.5v8a.5.5 0 0 1-.5.5h-5a.5.5 0 0 1-.5-.5v-8a.5.5 0 0 1 .5-.5z"/>
  </g>
</svg>
